!!!SOCIAL_FUNCTION:	dream songs
!!!PDT:	1913
!!!OTL: No_96_Song_of_the_Deer_(b).krn
!!!REG: Great_Lakes
!!!LANG: Non-Tone
!!!LING_GROUP: Algonquin
**kern	**kern
*staff2	*staff1
=1-	=1-
*clefF4	*clefF4
*k[b-e-a-d-]	*k[b-e-a-d-]
*M2/4	*M2/4
8GG/L	8d-\L
8GG/J	8d-\J
8GG/L	8c\L
8GG/J	8c\J
=2	=2
8GG/L	8B-\L
8GG/J	8B-\J
8GG/L	8.A-\L
8GG/J	.
.	16c\Jk
=3	=3
2r	8c\L
.	8c\J
.	8B-\L
.	8B-\J
=4||	=4||
*M3/4	*M3/4
2.r	8A-\L
.	8A-\J
.	8F\L
.	8F\J
.	8.E-\L
.	16A-\Jk
=5	=5
2.r	8A-\L
.	8F\J
.	8E-\L
.	8F\J
.	8E-\L
.	8E-\J
=6||	=6||
*M2/4	*M2/4
2r	8.E-\L
.	16E-\Jk
.	8E-\L
.	8E-\J
=7	=7
2r	4E-\
.	8E-\L
.	8E-\J
=8||	=8||
*M3/4	*M3/4
2.r	[2E-\
.	8.E-\L]
.	16E-\Jk
=9||	=9||
*M2/4	*M2/4
2r	4E-\
.	8E-\L
.	8E-\J
=10	=10
2r	2E-\
==	==
*-	*-
